icon-themes/sifr_svg/cmd/sc_ungroup.svg

<svg viewBox="0 0 16 16" xmlns="http://www.w3.org/2000/svg"><path d="m9 0v5h6v-5zm2 2h2v1h-2zm-8.8125 2c-.6627 0-1.1875.54899-1.1875 1.21875v4.5625c0 .66976.5248 1.21875 1.1875 1.21875h4.8125c.6627 0 1-.54899 1-1.21875v-4.5625c0-.66976-.33729-1.21875-1-1.21875zm-.1875 1h1l1.5 1.5 1.5-1.5h1v1l-1.5 1.5 1.5 1.5v1h-1l-1.5-1.5-1.5 1.5h-1v-1l1.5-1.5-1.5-1.5zm7 5v5h6v-5zm2 2h2v1h-2z" fill="#555753"/></svg>

<svg xmlns="http://www.w3.org/2000/svg" viewBox="0 0 16 16">
  <path
     style="fill:#555753"
     d="M 9 0 L 9 5 L 15 5 L 15 0 L 9 0 z M 11 2 L 13 2 L 13 3 L 11 3 L 11 2 z M 2.1875 4 C 1.5248 4 1 4.54899 1 5.21875 L 1 9.78125 C 1 10.45101 1.5248 11 2.1875 11 L 7 11 C 7.6627 11 8 10.45101 8 9.78125 L 8 5.21875 C 8 4.54899 7.66271 4 7 4 L 2.1875 4 z M 2 5 L 3 5 L 4.5 6.5 L 6 5 L 7 5 L 7 6 L 5.5 7.5 L 7 9 L 7 10 L 6 10 L 4.5 8.5 L 3 10 L 2 10 L 2 9 L 3.5 7.5 L 2 6 L 2 5 z M 9 10 L 9 15 L 15 15 L 15 10 L 9 10 z M 11 12 L 13 12 L 13 13 L 11 13 L 11 12 z "
     />
</svg>
